images_sukapura_svg/res/savemodified_extralarge.svg

<svg viewBox="0 0 32 32" xmlns="http://www.w3.org/2000/svg" xmlns:xlink="http://www.w3.org/1999/xlink"><linearGradient id="a" gradientUnits="userSpaceOnUse" x1="4" x2="4" y1="18.5" y2="3.5"><stop offset="0" stop-color="#4f4f4f"/><stop offset=".80000001" stop-color="#4f4f4f" stop-opacity=".498039"/><stop offset="1" stop-color="#b7b7b7"/></linearGradient><filter id="b" color-interpolation-filters="sRGB" height="1.082452" width="2.278" x="-.639" y="-.041226"><feGaussianBlur stdDeviation=".26625"/></filter><linearGradient id="c" gradientUnits="userSpaceOnUse" x1="28" x2="28" y1="21" y2="4"><stop offset="0" stop-color="#4f4f4f"/><stop offset=".88235295" stop-color="#4f4f4f" stop-opacity=".498039"/><stop offset="1" stop-color="#b7b7b7"/></linearGradient><filter id="d" color-interpolation-filters="sRGB" height="1.071" width="2.278" x="-.639" y="-.0355"><feGaussianBlur stdDeviation=".26625"/></filter><filter id="e" color-interpolation-filters="sRGB" height="1.168" width="1.126" x="-.063" y="-.084"><feGaussianBlur stdDeviation=".1575"/></filter><linearGradient id="f" gradientUnits="userSpaceOnUse" x1="17" x2="17" y1="27" y2="17"><stop offset="0" stop-color="#dadada"/><stop offset=".30000001" stop-color="#fff"/><stop offset="1" stop-color="#fff"/></linearGradient><path d="m4 3c-.554 0-1 .446-1 1v19.5l4.5 5.5h16.041016a4 4 0 0 1 -.541016-2 4 4 0 0 1 4-4 4 4 0 0 1 2 .541016v-19.541016c0-.554-.446-1-1-1z" fill="#3e3e3e"/><path d="m9 18c-.554 0-1 .446-1 1v7c0 .554.446 1 1 1h4v-7h3v7h7a4 4 0 0 1 2-3.458984v-4.541016c0-.554-.446-1-1-1z" fill="url(#f)"/><rect fill="#fff" height="11" rx=".5" width="18" x="7" y="4"/><path d="m13 20h3v1h-3z" fill="#2a2a2a"/><path d="m8 6h16v1h-16z" fill="#bababa"/><path d="m8 8h16v1h-16z" fill="#bababa"/><rect fill="url(#a)" filter="url(#b)" height="20.5" rx=".351695" width="1.5" x="4" y="3.5"/><path d="m26.5 3.5h1.5v19h-1.5z" fill="url(#c)" filter="url(#d)"/><path d="m6 15h20.5v4c-.332428-1.585337-1.430373-1.690577-3-2.5h-17.5z" fill="#3b3b3b" filter="url(#e)"/><path d="m8 10h16v1h-16z" fill="#bababa"/><path d="m9 4h14v1h-14z" fill="#0a84ff"/><path d="m8 12h16v1h-16z" fill="#bababa"/><circle cx="27" cy="27" fill="#ff9f0a" r="3"/></svg>

<?xml version="1.0" encoding="UTF-8" standalone="no"?>
<svg
   xmlns:dc="http://purl.org/dc/elements/1.1/"
   xmlns:cc="http://creativecommons.org/ns#"
   xmlns:rdf="http://www.w3.org/1999/02/22-rdf-syntax-ns#"
   xmlns:svg="http://www.w3.org/2000/svg"
   xmlns="http://www.w3.org/2000/svg"
   xmlns:xlink="http://www.w3.org/1999/xlink"
   xmlns:sodipodi="http://sodipodi.sourceforge.net/DTD/sodipodi-0.dtd"
   xmlns:inkscape="http://www.inkscape.org/namespaces/inkscape"
   viewBox="0 0 32 32"
   version="1.1"
   id="svg8"
   sodipodi:docname="savemodified_extralarge.svg"
   inkscape:export-filename="/home/rizmut/Documents/Rizmut/Github/libreoffice-style-sukapura/images_sukapura/cmd/32/save.png"
   inkscape:export-xdpi="96"
   inkscape:export-ydpi="96"
   inkscape:version="0.92.3 (2405546, 2018-03-11)">
  <metadata
     id="metadata14">
    <rdf:RDF>
      <cc:Work
         rdf:about="">
        <dc:format>image/svg+xml</dc:format>
        <dc:type
           rdf:resource="http://purl.org/dc/dcmitype/StillImage" />
        <dc:title></dc:title>
      </cc:Work>
    </rdf:RDF>
  </metadata>
  <defs
     id="defs12">
    <linearGradient
       inkscape:collect="always"
       id="linearGradient830">
      <stop
         style="stop-color:#dadada;stop-opacity:1"
         offset="0"
         id="stop826" />
      <stop
         id="stop834"
         offset="0.30000001"
         style="stop-color:#ffffff;stop-opacity:1;" />
      <stop
         style="stop-color:#ffffff;stop-opacity:1"
         offset="1"
         id="stop828" />
    </linearGradient>
    <linearGradient
       inkscape:collect="always"
       xlink:href="#linearGradient936"
       id="linearGradient938"
       x1="4"
       y1="18"
       x2="4"
       y2="3"
       gradientUnits="userSpaceOnUse"
       gradientTransform="translate(0,0.5)" />
    <linearGradient
       inkscape:collect="always"
       id="linearGradient936">
      <stop
         style="stop-color:#4f4f4f;stop-opacity:1;"
         offset="0"
         id="stop932" />
      <stop
         id="stop940"
         offset="0.80000001"
         style="stop-color:#4f4f4f;stop-opacity:0.49803922;" />
      <stop
         style="stop-color:#b7b7b7;stop-opacity:1"
         offset="1"
         id="stop934" />
    </linearGradient>
    <filter
       inkscape:collect="always"
       style="color-interpolation-filters:sRGB"
       id="filter893"
       x="-0.639"
       width="2.2780001"
       y="-0.041225806"
       height="1.0824516">
      <feGaussianBlur
         inkscape:collect="always"
         stdDeviation="0.26625"
         id="feGaussianBlur895" />
    </filter>
    <linearGradient
       inkscape:collect="always"
       xlink:href="#linearGradient956"
       id="linearGradient948"
       x1="21"
       y1="20"
       x2="21"
       y2="3"
       gradientUnits="userSpaceOnUse"
       gradientTransform="translate(7,1)" />
    <linearGradient
       id="linearGradient956"
       inkscape:collect="always">
      <stop
         id="stop950"
         offset="0"
         style="stop-color:#4f4f4f;stop-opacity:1;" />
      <stop
         style="stop-color:#4f4f4f;stop-opacity:0.49803922;"
         offset="0.88235295"
         id="stop952" />
      <stop
         id="stop954"
         offset="1"
         style="stop-color:#b7b7b7;stop-opacity:1" />
    </linearGradient>
    <filter
       inkscape:collect="always"
       style="color-interpolation-filters:sRGB"
       id="filter897"
       x="-0.639"
       width="2.2780001"
       y="-0.035500001"
       height="1.071">
      <feGaussianBlur
         inkscape:collect="always"
         stdDeviation="0.26625"
         id="feGaussianBlur899" />
    </filter>
    <filter
       inkscape:collect="always"
       style="color-interpolation-filters:sRGB"
       id="filter928"
       x="-0.063000001"
       width="1.126"
       y="-0.083999999"
       height="1.168">
      <feGaussianBlur
         inkscape:collect="always"
         stdDeviation="0.1575"
         id="feGaussianBlur930" />
    </filter>
    <linearGradient
       inkscape:collect="always"
       xlink:href="#linearGradient830"
       id="linearGradient912"
       x1="17"
       y1="27"
       x2="17"
       y2="17"
       gradientUnits="userSpaceOnUse" />
  </defs>
  <sodipodi:namedview
     pagecolor="#ffffff"
     bordercolor="#666666"
     borderopacity="1"
     objecttolerance="10"
     gridtolerance="10"
     guidetolerance="10"
     inkscape:pageopacity="0"
     inkscape:pageshadow="2"
     inkscape:window-width="1366"
     inkscape:window-height="692"
     id="namedview10"
     showgrid="true"
     inkscape:object-nodes="true"
     inkscape:snap-smooth-nodes="true"
     inkscape:zoom="10.429825"
     inkscape:cx="25.217783"
     inkscape:cy="7.9908635"
     inkscape:window-x="0"
     inkscape:window-y="0"
     inkscape:window-maximized="1"
     inkscape:current-layer="svg8">
    <inkscape:grid
       type="xygrid"
       id="grid821"
       spacingx="0.5"
       spacingy="0.5"
       empspacing="2" />
  </sodipodi:namedview>
  <path
     style="fill:#3e3e3e;fill-opacity:1"
     d="M 4 3 C 3.446 3 3 3.446 3 4 L 3 23.5 L 7.5 29 L 23.541016 29 A 4 4 0 0 1 23 27 A 4 4 0 0 1 27 23 A 4 4 0 0 1 29 23.541016 L 29 4 C 29 3.446 28.554 3 28 3 L 4 3 z "
     id="path2" />
  <g
     id="g936">
    <path
       style="fill:url(#linearGradient912);fill-opacity:1"
       d="M 9 18 C 8.446 18 8 18.446 8 19 L 8 26 C 8 26.554 8.446 27 9 27 L 13 27 L 13 20 L 16 20 L 16 27 L 23 27 A 4 4 0 0 1 25 23.541016 L 25 19 C 25 18.446 24.554 18 24 18 L 9 18 z "
       id="path4" />
    <rect
       rx="0.5"
       style="fill:#ffffff"
       id="rect6"
       y="4"
       x="7"
       width="18"
       ry="0.5"
       height="11" />
    <path
       sodipodi:nodetypes="ccccc"
       inkscape:connector-curvature="0"
       id="rect865"
       d="m 13,20 h 3 v 1 h -3 z"
       style="opacity:1;fill:#2a2a2a;fill-opacity:1;stroke:none;stroke-width:1.22474492;stroke-linecap:square;stroke-linejoin:round;stroke-miterlimit:4;stroke-dasharray:none;stroke-dashoffset:0;stroke-opacity:1" />
    <rect
       style="opacity:1;fill:#bababa;fill-opacity:1;stroke:none;stroke-width:1;stroke-linecap:square;stroke-linejoin:round;stroke-miterlimit:4;stroke-dasharray:none;stroke-dashoffset:0;stroke-opacity:1"
       id="rect1511"
       width="16"
       height="1"
       x="8"
       y="6" />
    <rect
       style="opacity:1;fill:#bababa;fill-opacity:1;stroke:none;stroke-width:1;stroke-linecap:square;stroke-linejoin:round;stroke-miterlimit:4;stroke-dasharray:none;stroke-dashoffset:0;stroke-opacity:1"
       id="rect1513"
       width="16"
       height="1"
       x="8"
       y="8" />
    <rect
       style="opacity:1;fill:url(#linearGradient938);fill-opacity:1;stroke:none;stroke-width:1;stroke-linecap:square;stroke-linejoin:round;stroke-miterlimit:4;stroke-dasharray:none;stroke-dashoffset:0;stroke-opacity:1;filter:url(#filter893)"
       id="rect847"
       width="1.5"
       height="20.5"
       x="4"
       y="3.5"
       rx="0.35169491" />
    <rect
       style="opacity:1;fill:url(#linearGradient948);fill-opacity:1;stroke:none;stroke-width:1;stroke-linecap:square;stroke-linejoin:round;stroke-miterlimit:4;stroke-dasharray:none;stroke-dashoffset:0;stroke-opacity:1;filter:url(#filter897)"
       id="rect867"
       width="1.5"
       height="19"
       x="26.5"
       y="3.5" />
    <path
       style="opacity:1;fill:#3b3b3b;fill-opacity:1;stroke:none;stroke-width:1;stroke-linecap:square;stroke-linejoin:round;stroke-miterlimit:4;stroke-dasharray:none;stroke-dashoffset:0;stroke-opacity:1;filter:url(#filter928)"
       d="m 6,15 h 20.5 v 4 c -0.332428,-1.585337 -1.430373,-1.690577 -3,-2.5 H 6 Z"
       id="rect901"
       inkscape:connector-curvature="0"
       sodipodi:nodetypes="cccccc" />
    <rect
       y="10"
       x="8"
       height="1"
       width="16"
       id="rect914"
       style="opacity:1;fill:#bababa;fill-opacity:1;stroke:none;stroke-width:1;stroke-linecap:square;stroke-linejoin:round;stroke-miterlimit:4;stroke-dasharray:none;stroke-dashoffset:0;stroke-opacity:1" />
    <rect
       y="4"
       x="9"
       height="1"
       width="14"
       id="rect916"
       style="opacity:1;fill:#0a84ff;fill-opacity:1;stroke:none;stroke-width:1.24721909;stroke-linecap:square;stroke-linejoin:round;stroke-miterlimit:4;stroke-dasharray:none;stroke-dashoffset:0;stroke-opacity:1" />
    <rect
       style="opacity:1;fill:#bababa;fill-opacity:1;stroke:none;stroke-width:1;stroke-linecap:square;stroke-linejoin:round;stroke-miterlimit:4;stroke-dasharray:none;stroke-dashoffset:0;stroke-opacity:1"
       id="rect922"
       width="16"
       height="1"
       x="8"
       y="12" />
  </g>
  <circle
     style="fill:#ff9f0a;fill-opacity:1"
     cx="27"
     cy="27"
     r="3"
     id="circle8" />
</svg>
